!!!OTL: Schuettensam
!!!ARE: Europa, Mitteleuropa, Deutschland
!!!SCT: A0373C
!!!YEM: Copyright 1995, estate of Helmut Schaffrath.
**kern
*ICvox
*Ivox
*M4/2
*k[b-]
*F:
{2f
2f
2a
2b-
=1
2cc
2b-
2.cc}
{4dd
=2
2ee-
2dd
2cc
2b-
=3
1cc
1r}
=4
{2f
2f
2a
2b-
=5
2cc
2b-
2.cc}
{4dd
=6
2ee-
2dd
2cc
2b-
=7
1cc
2r}
{2cc
=8
2.a
4b-
2cc
2dd
=9
1cc
2g}
{2g
=10
2.b-
4a
2g
2f
=11
2e
2d
2c}
{2c
=12
4f
4g
4a
4b-
2cc
4g
4a
=13
0f}
==
!!!AGN: Romanze, Ballade, Lied, Personenlied
!! Mainzer Cantual 1605 S. 135 und Paderborner Gsgb. 1617 S. 135.
!!!ONB: ESAC (Essen Associative Code) Database: ALTDEU
!!!AMT: simple quadruple
!!!AIN: vox
!!!EED: Helmut Schaffrath
!!!EEV: 1.0
*-
